X:335
T:AIR X. Bonnie Lassie, take a Man.
B:Joseph Mitchell: "The Highland Fair" (1731)
Z:Jack Campin <http://www.purr.demon.co.uk/jack/jack.html>
M:C|
L:1/8
K:F
 F3   A   G2 (G/A/B)| G2 (FD) G2 z2|F2(F/G/A) G2  AB | G2F2  f2z2|\
(ag)(fd) (cd)(fA)   |(BA)(GF) G2 z2|f2 ed    (cd)(fA)| G4    F2z2|
 f3   a   g2 (ag)   | f2  d2  g2 z2|f2(f/g/a) g2  ag | f2d2  f2z2|\
(ag)(fd) (cd)(fA)   |(BA)(GF) G2 z2|f2(ed)   (cd)(fA)|(G3 F) F4 |]
